P1
32 960
00000000000000000000000000000000
00000000111111000000000000000000
00000001100001110111111100000000
00000011000000011000000010000000
00001110000000110000000001000000
00001010000000000000000111111000
00001000000000000000001100000100
00001000000000000000000000000100
00001100000011110000000000001100
00000110001110011000011100011000
00000011111000001111110111110000
00000000000000000000000000000000
00000000000000000000000000000000
00000000000000000000000000000000
00000000000000000000000000000000
00000000000000000000000000000000
00000000000000000000000000000000
00000000000000000000000000000000
00000000000000000000000000000000
00000000000000000000000000000000
00000000000000000000000000000000
00000000000000000000000000000000
00000000000000000000000000000000
00000000000000000000000000000000
00000000000000000000000000000000
00000000000000000000000000000000
00000000000000000000000000000000
00000000000000000000000000000000
00000000000000000000000000000000
00000000000000000000000000000000
00000000000000000000000000000000
00000000000000000000000000000000
00000000000000000000000000000000
00000000111111000000000000000000
00000001100001110111111100000000
00000011000000011000000010000000
00001110000000110000000001000000
00001010000000000000000111111000
00001000000000000000001100000100
00001000000000000000000000000100
00001100000011110000000000001100
00000110001110011000011100011000
00000011111000001111110111110000
00000000000000000000000000000000
00000000000000000000000000000000
00000000000000000000000000000000
00000000000000000000000000000000
00000000000000000000000000000000
00000000000000000000000000000000
00000000000000000000000000000000
00000000000000000000000000000000
00000000000000000000000000000000
00000000000000000000000000000000
00000000000000000000000000000000
00000000000000000000000000000000
00000000000000000000000000000000
00000000000000000000000000000000
00000000000000000000000000000000
00000000000000000000000000000000
00000000000000000000000000000000
00000000000000000000000000000000
00000000000000000000000000000000
00000000000000000000000000000000
00000000000000000000000000000000
00000000000000000000000000000000
00000000111111000000000000000000
00000001100001110111111100000000
00000011000000011000000010000000
00001110000000110000000001000000
00001010000000000000000111111000
00001000000000000000001100000100
00001000000000000000000000000100
00001100000011110000000000001100
00000110001110011000011100011000
00000011111000001111110111110000
00000000000000000100000000000000
00000000000000001100000000000000
00000000000000001000000000000000
00000000000000000000000000000000
00000000000000000000000000000000
00000000000000000000000000000000
00000000000000000000000000000000
00000000000000000000000000000000
00000000000000000000000000000000
00000000000000000000000000000000
00000000000000000000000000000000
00000000000000000000000000000000
00000000000000000000000000000000
00000000000000000000000000000000
00000000000000000000000000000000
00000000000000000000000000000000
00000000000000000000000000000000
00000000000000000000000000000000
00000000000000000000000000000000
00000000000000000000000000000000
00000000000000000000000000000000
00000000000000000000000000000000
00000000111111000000000000000000
00000001100001110111111100000000
00000011000000011000000010000000
00001110000000110000000001000000
00001010000000000000000111111000
00001000000000000000001100000100
00001000000000000000000000000100
00001100000011110000000000001100
00000110001110011000011100011000
00000011111000001111110111110000
00000000000000000100000000000000
00000000000000001100000000000000
00000000000000001000000000000000
00000000000000111100000000000000
00000000000000100100000000000000
00000000000001110100000000000000
00000000000011010110000000000000
00000000000010000010000000000000
00000000000000000010000000000000
00000000000000000000000000000000
00000000000000000000000000000000
00000000000000000000000000000000
00000000000000000000000000000000
00000000000000000000000000000000
00000000000000000000000000000000
00000000000000000000000000000000
00000000000000000000000000000000
00000000000000000000000000000000
00000000000000000000000000000000
00000000000000000000000000000000
00000000000000000000000000000000
00000000000000000000000000000000
00000000111111000000000000000000
00000001100001110111111100000000
00000011000000011000000010000000
00001110000000110000000001000000
00001010000000000000000111111000
00001000000000000000001100000100
00001000000000000000000000000100
00001100000011110000000000001100
00000110001110011000011100011000
00000011111000001111110111110000
00000000000000000100000000000000
00000000000000001100000000000000
00000000000000001000000000000000
00000000000000111100000000000000
00000000000000100100000000000000
00000000000001110100000000000000
00000000000011010110000000000000
00000000000010010010000000000000
00000000000010010011000000000000
00000000000110011001000000000000
00000000000100001001010000000000
00000000000100001001110000000000
00000000011100001001000000000000
00000000010100001001000000000000
00000000000100011100000000000000
00000000000100010100000000000000
00000000000100010000000000000000
00000000000000000000000000000000
00000000000000000000000000000000
00000000000000000000000000000000
00000000000000000000000000000000
00000000000000000000000000000000
00000000111111000000000000000000
00000001100001110111111100000000
00000011000000011000000010000000
00001110000000110000000001000000
00001010000000000000000111111000
00001000000000000000001100000100
00001000000000000000000000000100
00001100000011110000000000001100
00000110001110011000011100011000
00000011111000001111110111110000
00000000000000000100000000000000
00000000000000001100000000000000
00000000000000001000000000000000
00000000000000111100000000000000
00000000000000100100000000000000
00000000000001110100000000000000
00000000000011010110000000000000
00000000000010010010000000000000
00000000000010010011000000000000
00000000000110011001000000000000
00000000000100001001010000000000
00000000000100001001110000000000
00000000011100001001000000000000
00000000010100001001000000000000
00000000000100011100000000000000
00000000000100010000000000000000
00000000000110010000000000000000
00000000000000010000000000000000
00000000000000010000000000000000
00000000000001010100000000000000
00000000000000010000000000000000
00000000000000000000000000000000
00000000111111000000000000000000
00000001100001110111111100000000
00000011000000011000000010000000
00001110000000110000000001000000
00001010000000000000000111111000
00001000000000000000001100000100
00001000000000000000000000000100
00001100000011110000000000001100
00000110001110011000011100011000
00000011111000001111110111110000
00000000000000000100000000000000
00000000000000001100000000000000
00000000000000001000000000000000
00000000000000111100000000000000
00000000000000100100000000000000
00000000000001110100000000000000
00000000000011010110000000000000
00000000000010010010000000000000
00000000000010010011000000000000
00000000000110011001000000000000
00000000000100001001000000000000
00000000000100001000000000000000
00000000000100001000000000000000
00000000000100001000000000000000
00000000000100011000000000000000
00000000000000010000000000000000
00000000000000010000000000000000
00000000000001010100000000000000
00000000000000010000000000000000
00000000000100010001000000000000
00000000000000010000000000000000
00000000000000000000000000000000
00000000111111000000000000000000
00000001100001110111111100000000
00000011000000011000000010000000
00001110000000110000000001000000
00001010000000000000000111111000
00001000000000000000001100000100
00001000000000000000000000000100
00001100000011110000000000001100
00000110001110011000011100011000
00000011111000001111110111110000
00000000000000000100000000000000
00000000000000001100000000000000
00000000000000001000000000000000
00000000000000111100000000000000
00000000000000100100000000000000
00000000000001110100000000000000
00000000000011010110000000000000
00000000000010010010000000000000
00000000000010010000000000000000
00000000000110011000000000000000
00000000000100001000000000000000
00000000000000001000000000000000
00000000000000001000000000000000
00000000000000001000000000000000
00000000000000011000000000000000
00000000000001010100000000000000
00000000001000010000100000000000
00000000000000010000000000000000
00000000000000010000000000000000
00000000010001010100010000000000
00000000000000010000000000000000
00000000000000000000000000000000
00000000111111000000000000000000
00000001100001110111111100000000
00000011000000011000000010000000
00001110000000110000000001000000
00001010000000000000000111111000
00001000000000000000001100000100
00001000000000000000000000000100
00001100000011110000000000001100
00000110001110011000011100011000
00000011111000001111110111110000
00000000000000000100000000000000
00000000000000001100000000000000
00000000000000001000000000000000
00000000000000111100000000000000
00000000000000100100000000000000
00000000000001110000000000000000
00000000000011010000000000000000
00000000000010010000000000000000
00000000000000010000000000000000
00000000000000011000000000000000
00000000000000001000000000000000
00000000000000001000000000000000
00000000000000001000000000000000
00000000000000001000000000000000
00000000000000011000000000000000
00000000000000010000000000000000
00000000000000010000000000000000
00000000000001010100000000000000
00000000000000010000000000000000
00000000000100010001000000000000
00000000000000010000000000000000
00000000000000000000000000000000
00000000111111000000000000000000
00000001100001110111111100000000
00000011000000011000000010000000
00001110000000110000000001000000
00001010000000000000000111111000
00001000000000000000001100000100
00001000000000000000000000000100
00001100000011110000000000001100
00000110001110011000011100011000
00000011111000001111110111110000
00000000000000000100000000000000
00000000000000001100000000000000
00000000000000001000000000000000
00000000000000111000000000000000
00000000000000100000000000000000
00000000000000110000000000000000
00000000000000010000000000000000
00000000000000010000000000000000
00000000000000010000000000000000
00000000000000011000000000000000
00000000000000001000000000000000
00000000000000001000000000000000
00000000000000001000000000000000
00000000000000001000000000000000
00000000000000011000000000000000
00000000000000010000000000000000
00000000000000010000000000000000
00000000000001111100000000000000
00000000000010010010000000000000
00000000000101010101000000000000
00000000000100010001000000000000
00000000000000000000000000000000
00000000111111000000000000000000
00000001100001110111111100000000
00000011000000011000000010000000
00001110000000110000000001000000
00001010000000000000000111111000
00001000000000000000001100000100
00001000000000000000000000000100
00001100000011110000000000001100
00000110001110011000011100011000
00000011111000001111110111110000
00000000000000000100000000000000
00000000000000001100000000000000
00000000000000001000000000000000
00000000000000111000000000000000
00000000000000100000000000000000
00000000000000110000000000000000
00000000000000010000000000000000
00000000000000010000000000000000
00000000000000010000000000000000
00000000000000011000000000000000
00000000000000001000000000000000
00000000000000001000000000000000
00000000000000001000000000000000
00000000000000001000000000000000
00000000000000011000000000000000
00000000000011111110000000000000
00000000000100010001000000000000
00000000001000010000100000000000
00000000010000010000010000000000
00000000010000010000010000000000
00000000010000010000010000000000
00000000000000000000000000000000
00000000111111000000000000000000
00000001100001110111111100000000
00000011000000011000000010000000
00001110000000110000000001000000
00001010000000000000000111111000
00001000000000000000001100000100
00001000000000000000000000000100
00001100000011110000000000001100
00000110001110011000011100011000
00000011111000001111110111110000
00000000000000000100000000000000
00000000000000001100000000000000
00000000000000001000000000000000
00000000000000111000000000000000
00000000000000100000000000000000
00000000000000110000000000000000
00000000000000010000000000000000
00000000000000010000000000000000
00000000000000010000000000000000
00000000000000011000000000000000
00000000000000001000000000000000
00000000000000001000000000000000
00000000000000001000000000000000
00000000001010101010100000000000
00000000000000011000000000000000
00000000100000010000001000000000
00000000000000010000000000000000
00000000000000010000000000000000
00000001000000010000000100000000
00000000000000010000000000000000
00000001000000010000000100000000
00000000000000000000000000000000
00000000111111000000000000000000
00000001100001110111111100000000
00000011000000011000000010000000
00001110000000110000000001000000
00001010000000000000000111111000
00001000000000000000001100000100
00001000000000000000000000000100
00001100000011110000000000001100
00000110001110011000011100011000
00000011111000001111110111110000
00000000000000000100000000000000
00000000000000001100000000000000
00000000000000001000000000000000
00000000000000111000000000000000
00000000000000100000000000000000
00000000000000110000000000000000
00000000000000010000000000000000
00000000000000010000000000000000
00000000000000010000000000000000
00000000000000011000000000000000
00000000000000001000000000000000
00000000001010101010100000000000
00000001000000000000001000000000
00000000000000000000000000000000
00000100000000000000000001000000
00000000000000000000000000000000
00000000000000000000000000000000
00000000000000000000000000000000
00000100000000000000000001000000
00000000000000000000000000000000
00000100000000000000000001000000
00000000000000000000000000000000
00000000111111000000000000000000
00000001100001110111111100000000
00000011000000011000000010000000
00001110000000110000000001000000
00001010000000000000000111111000
00001000000000000000001100000100
00001000000000000000000000000100
00001100000011110000000000001100
00000110001110011000011100011000
00000011111000001111110111110000
00000000000000000100000000000000
00000000000000001100000000000000
00000000000000001000000000000000
00000000000000111000000000000000
00000000000000100000000000000000
00000000000000110000000000000000
00000000000000010000000000000000
00000000000000010000000000000000
00000000000000010000000000000000
00000000000000011000000000000000
00000000000000001000000000000000
00000000001010101010100000000000
00000001000000000000001000000000
00000000000000000000000000000000
00000100000000000000000001000000
00000000000000000000000000000000
00000000000000000000000000000000
00000000000000000000000000000000
00000100000000000000000001000000
00000000000000000000000000000000
00000100000000000000000001000000
00000000000000000000000000000000
00000000111111000000000000000000
00000001100001110111111100000000
00000011000000011000000010000000
00001110000000110000000001000000
00001010000000000000000111111000
00001000000000000000001100000100
00001000000000000000000000000100
00001100000011110000000000001100
00000110001110011000011100011000
00000011111000001111110111110000
00000000000000000100000000000000
00000000000000001100000000000000
00000000000000001000000000000000
00000000000000111000000000000000
00000000000000100000000000000000
00000000000000110000000000000000
00000000000000010000000000000000
00000000000000010000000000000000
00000000000000010000000000000000
00000000000000011000000000000000
00000000000000001000000000000000
00000000001010101010100000000000
00000001000000000000001000000000
00000000000000000000000000000000
00000100000000000000000001000000
00000001110111011101111100000000
00000001010101010101010100000000
00000001110101010101010100000000
00000101010101010101010101000000
00000001110111011101010100000000
00000100000000000000000001000000
00000000000000000000000000000000
00000000111111000000000000000000
00000001100001110111111100000000
00000011000000011000000010000000
00001110000000110000000001000000
00001010000000000000000111111000
00001000000000000000001100000100
00001000000000000000000000000100
00001100000011110000000000001100
00000110001110011000011100011000
00000011111000001111110111110000
00000000000000000100000000000000
00000000000000001100000000000000
00000000000000001000000000000000
00000000000000111000000000000000
00000000000000100000000000000000
00000000000000110000000000000000
00000000000000010000000000000000
00000000000000010000000000000000
00000000000000010000000000000000
00000000000000011000000000000000
00000000000000001000000000000000
00000000001010101010100000000000
00000001000000000000001000000000
00000000000000000000000000000000
00000100000000000000000001000000
00000001110111011101111100000000
00000001010101010101010100000000
00000001110101010101010100000000
00000101010101010101010101000000
00000001110111011101010100000000
00000100000000000000000001000000
00000000000000000000000000000000
00000000111111000000000000000000
00000001100001110111111100000000
00000011000000011000000010000000
00001110000000110000000001000000
00001010000000000000000111111000
00001000000000000000001100000100
00001000000000000000000000000100
00001100000011110000000000001100
00000110001110011000011100011000
00000011111000001111110111110000
00000000000000000100000000000000
00000000000000001100000000000000
00000000000000001000000000000000
00000000000000111000000000000000
00000000000000100000000000000000
00000000000000110000000000000000
00000000000000010000000000000000
00000000000000010000000000000000
00000000000000010000000000000000
00000000000000011000000000000000
00000000000000001000000000000000
00000000001010101010100000000000
00000001000000000000001000000000
00000000000000000000000000000000
00000100000000000000000001000000
00000001110111011101111100000000
00000001010101010101010100000000
00000001110101010101010100000000
00000101010101010101010101000000
00000001110111011101010100000000
00000100000000000000000001000000
00000000000000000000000000000000
00000000111111000000000000000000
00000001100001110111111100000000
00000011000000011000000010000000
00001110000000110000000001000000
00001010000000000000000111111000
00001000000000000000001100000100
00001000000000000000000000000100
00001100000011110000000000001100
00000110001110011000011100011000
00000011111000001111110111110000
00000000000000000100000000000000
00000000000000001100000000000000
00000000000000001000000000000000
00000000000000111000000000000000
00000000000000100000000000000000
00000000000000110000000000000000
00000000000000010000000000000000
00000000000000010000000000000000
00000000000000010000000000000000
00000000000000011000000000000000
00000000000000001000000000000000
00000000001010101010100000000000
00000001000000000000001000000000
00000000000000000000000000000000
00000100000000000000000001000000
00000001110111011101111100000000
00000001010101010101010100000000
00000001110101010101010100000000
00000101010101010101010101000000
00000001110111011101010100000000
00000100000000000000000001000000
00000000000000000000000000000000
00000000111111000000000000000000
00000001100001110111111100000000
00000011000000011000000010000000
00001110000000110000000001000000
00001010000000000000000111111000
00001000000000000000001100000100
00001000000000000000000000000100
00001100000011110000000000001100
00000110001110011000011100011000
00000011111000001111110111110000
00000000000000000100000000000000
00000000000000001100000000000000
00000000000000001000000000000000
00000000000000111000000000000000
00000000000000100000000000000000
00000000000000110000000000000000
00000000000000010000000000000000
00000000000000010000000000000000
00000000000000010000000000000000
00000000000000011000000000000000
00000000000000001000000000000000
00000000001010101010100000000000
00000001000000000000001000000000
00000000000000000000000000000000
00000100000000000000000001000000
00000001110111011101111100000000
00000001010101010101010100000000
00000001110101010101010100000000
00000101010101010101010101000000
00000001110111011101010100000000
00000100000000000000000001000000
00000000000000000000000000000000
00000000111111000000000000000000
00000001100001110111111100000000
00000011000000011000000010000000
00001110000000110000000001000000
00001010000000000000000111111000
00001000000000000000001100000100
00001000000000000000000000000100
00001100000011110000000000001100
00000110001110011000011100011000
00000011111000001111110111110000
00000000000000000100000000000000
00000000000000001100000000000000
00000000000000001000000000000000
00000000000000111000000000000000
00000000000000100000000000000000
00000000000000110000000000000000
00000000000000010000000000000000
00000000000000010000000000000000
00000000000000010000000000000000
00000000000000011000000000000000
00000000000000001000000000000000
00000000001010101010100000000000
00000001000000000000001000000000
00000000000000000000000000000000
00000100000000000000000001000000
00000001110111011101111100000000
00000001010101010101010100000000
00000001110101010101010100000000
00000101010101010101010101000000
00000001110111011101010100000000
00000100000000000000000001000000
00000000000000000000000000000000
00000000111111000000000000000000
00000001100001110111111100000000
00000011000000011000000010000000
00001110000000110000000001000000
00001010000000000000000111111000
00001000000000000000001100000100
00001000000000000000000000000100
00001100000011110000000000001100
00000110001110011000011100011000
00000011111000001111110111110000
00000000000000000100000000000000
00000000000000001100000000000000
00000000000000001000000000000000
00000000000000111000000000000000
00000000000000100000000000000000
00000000000000110000000000000000
00000000000000010000000000000000
00000000000000010000000000000000
00000000000000010000000000000000
00000000000000011000000000000000
00000000000000001000000000000000
00000000001010101010100000000000
00000001000000000000001000000000
00000000000000000000000000000000
00000100000000000000000001000000
00000000000000000000000000000000
00000000000000000000000000000000
00000000000000000000000000000000
00000100000000000000000001000000
00000000000000000000000000000000
00000100000000000000000001000000
00000000000000000000000000000000
00000000111111000000000000000000
00000001100001110111111100000000
00000011000000011000000010000000
00001110000000110000000001000000
00001010000000000000000111111000
00001000000000000000001100000100
00001000000000000000000000000100
00001100000011110000000000001100
00000110001110011000011100011000
00000011111000001111110111110000
00000000000000000100000000000000
00000000000000001100000000000000
00000000000000001000000000000000
00000000000000111000000000000000
00000000000000100000000000000000
00000000000000110000000000000000
00000000000000010000000000000000
00000000000000010000000000000000
00000000000000010000000000000000
00000000001010011010100000000000
00000100000000000000000010000000
00000000000000000000000000000000
00000000000000000000000000010000
00000000000000000000000000000000
00010000000000000000000000000000
00000000000000000000000000000000
00000000000000000000000000000000
00000000000000000000000000000000
00010000000000000000000000010000
00000000000000000000000000000000
00010000000000000000000000010000
00000000000000000000000000000000
00000000111111000000000000000000
00000001100001110111111100000000
00000011000000011000000010000000
00001110000000110000000001000000
00001010000000000000000111111000
00001000000000000000001100000100
00001000000000000000000000000100
00001100000011110000000000001100
00000110001110011000011100011000
00000011111000001111110111110000
00000000000000000100000000000000
00000000000000001100000000000000
00000000000000001000000000000000
00000000000000111000000000000000
00000000000000100000000000000000
00000000000000110000000000000000
00000000000000010000000000000000
00000000000000010000000000000000
00000000000000010000000000000000
00000000001010011010100000000000
00000100000000001000000010000000
00000000000000001000000000000000
00000000000000001000000000010000
00000000000000001000000000000000
00010000000000011000000000000000
00000000000000010000000000000000
00000000000000010000000000000000
00000000000000010000000000000000
00010000000000010000000000010000
00000000000000010000000000000000
00010000000000010000000000010000
00000000000000000000000000000000
00000000111111000000000000000000
00000001100001110111111100000000
00000011000000011000000010000000
00001110000000110000000001000000
00001010000000000000000111111000
00001000000000000000001100000100
00001000000000000000000000000100
00001100000011110000000000001100
00000110001110011000011100011000
00000011111000001111110111110000
00000000000000000100000000000000
00000000000000001100000000000000
00000000000000001000000000000000
00000000000000111000000000000000
00000000000000100000000000000000
00000000000000110000000000000000
00000000000000010000000000000000
00000000000000010000000000000000
00000000000000010000000000000000
00000000000000011000000000000000
00000000000000001000000000000000
00000000000000001000000000000000
00000000000000001000000000000000
00000000000000001000000000000000
00000000000000011000000000000000
00000000000000010000000000000000
00000000000000010000000000000000
00000000000000010000000000000000
00000000000000010000000000000000
00000000000000010000000000000000
00000000000000010000000000000000
00000000000000000000000000000000
00000000111111000000000000000000
00000001100001110111111100000000
00000011000000011000000010000000
00001110000000110000000001000000
00001010000000000000000111111000
00001000000000000000001100000100
00001000000000000000000000000100
00001100000011110000000000001100
00000110001110011000011100011000
00000011111000001111110111110000
00000000000000000100000000000000
00000000000000001100000000000000
00000000000000001000000000000000
00000000000000111000000000000000
00000000000000100000000000000000
00000000000000110000000000000000
00000000000000010000000000000000
00000000000000010000000000000000
00000000000000010000000000000000
00000000000000011000000000000000
00000000000000001000000000000000
00000000000000001000000000000000
00000000000000001000000000000000
00000000000000001000000000000000
00000000000000011000000000000000
00000000000000010000000000000000
00000000000000010000000000000000
00000000000000010000000000000000
00000000000000010000000000000000
00000000000000010000000000000000
00000000000000010000000000000000
00000000000000000000000000000000
00000000111111000000000000000000
00000001100001110111111100000000
00000011000000011000000010000000
00001110000000110000000001000000
00001010000000000000000111111000
00001000000000000000001100000100
00001000000000000000000000000100
00001100000011110000000000001100
00000110001110011000011100011000
00000011111000001111110111110000
00000000000000000000000000000000
00000000000000000000000000000000
00000000000000000000000000000000
00000000000000000000000000000000
00000000000000100000000000000000
00000000000000110000000000000000
00000000000000010000000000000000
00000000000000010000000000000000
00000000000000010000000000000000
00000000000000011000000000000000
00000000000000001000000000000000
00000000000000001000000000000000
00000000000000001000000000000000
00000000000000001000000000000000
00000000000000011000000000000000
00000000000000010000000000000000
00000000000000010000000000000000
00000000000000010000000000000000
00000000000000010000000000000000
00000000000000010000000000000000
00000000000000010000000000000000
00000000000000000000000000000000
00000000111111000000000000000000
00000001100001110111111100000000
00000011000000011000000010000000
00001110000000110000000001000000
00001010000000000000000111111000
00001000000000000000001100000100
00001000000000000000000000000100
00001100000011110000000000001100
00000110001110011000011100011000
00000011111000001111110111110000
00000000000000000000000000000000
00000000000000000000000000000000
00000000000000000000000000000000
00000000000000000000000000000000
00000000000000000000000000000000
00000000000000000000000000000000
00000000000000000000000000000000
00000000000000000000000000000000
00000000000000000000000000000000
00000000000000001000000000000000
00000000000000001000000000000000
00000000000000001000000000000000
00000000000000001000000000000000
00000000000000001000000000000000
00000000000000011000000000000000
00000000000000010000000000000000
00000000000000010000000000000000
00000000000000010000000000000000
00000000000000010000000000000000
00000000000000010000000000000000
00000000000000010000000000000000
00000000000000000000000000000000
00000000111111000000000000000000
00000001100001110111111100000000
00000011000000011000000010000000
00001110000000110000000001000000
00001010000000000000000111111000
00001000000000000000001100000100
00001000000000000000000000000100
00001100000011110000000000001100
00000110001110011000011100011000
00000011111000001111110111110000
00000000000000000000000000000000
00000000000000000000000000000000
00000000000000000000000000000000
00000000000000000000000000000000
00000000000000000000000000000000
00000000000000000000000000000000
00000000000000000000000000000000
00000000000000000000000000000000
00000000000000000000000000000000
00000000000000000000000000000000
00000000000000000000000000000000
00000000000000000000000000000000
00000000000000000000000000000000
00000000000000000000000000000000
00000000000000010000000000000000
00000000000000010000000000000000
00000000000000010000000000000000
00000000000000010000000000000000
00000000000000010000000000000000
00000000000000010000000000000000
00000000000000010000000000000000
00000000000000000000000000000000
00000000111111000000000000000000
00000001100001110111111100000000
00000011000000011000000010000000
00001110000000110000000001000000
00001010000000000000000111111000
00001000000000000000001100000100
00001000000000000000000000000100
00001100000011110000000000001100
00000110001110011000011100011000
00000011111000001111110111110000
00000000000000000000000000000000
00000000000000000000000000000000
00000000000000000000000000000000
00000000000000000000000000000000
00000000000000000000000000000000
00000000000000000000000000000000
00000000000000000000000000000000
00000000000000000000000000000000
00000000000000000000000000000000
00000000000000000000000000000000
00000000000000000000000000000000
00000000000000000000000000000000
00000000000000000000000000000000
00000000000000000000000000000000
00000000000000000000000000000000
00000000000000000000000000000000
00000000000000000000000000000000
00000000000000000000000000000000
00000000000000000000000000000000
00000000000000000000000000000000
00000000000000000000000000000000
00000000000000000000000000000000
00000000111111000000000000000000
00000001100001110111111100000000
00000011000000011000000010000000
00001110000000110000000001000000
00001010000000000000000111111000
00001000000000000000001100000100
00001000000000000000000000000100
00001100000011110000000000001100
00000110001110011000011100011000
00000011111000001111110111110000
00000000000000000000000000000000
00000000000000000000000000000000
00000000000000000000000000000000
00000000000000000000000000000000
00000000000000000000000000000000
00000000000000000000000000000000
00000000000000000000000000000000
00000000000000000000000000000000
00000000000000000000000000000000
00000000000000000000000000000000
00000000000000000000000000000000
00000000000000000000000000000000
00000000000000000000000000000000
00000000000000000000000000000000
00000000000000000000000000000000
00000000000000000000000000000000
00000000000000000000000000000000
00000000000000000000000000000000
00000000000000000000000000000000
00000000000000000000000000000000
00000000000000000000000000000000
