P1
32 1056
00000000000000000000000000000000
00000000111111000000000000000000
00000001100001110111111100000000
00000011000000011000000010000000
00001110000000110000000001000000
00001010000000000000000111111000
00001000000000000000001100000100
00001000000000000000000000000100
00001100000011110000000000001100
00000110001110011000011100011000
00000011111000001111110111110000
00000000000000000000000000000000
00000000000000000000000000000000
00000000000000000000000000000000
00000000000000000000000000000000
00000000000000000000000000000000
00000000000000000000000000000000
00000000000000000000000000000000
00000000000000000000000000000000
00000000000000000000000000000000
00000000000000000000000000000000
00000000000000000000000000000000
00000000000000000000000000000000
00000000000000000000000000000000
00000000000000000000000000000000
00000000000000000000000000000000
00000000000000000000000000000000
00000000000000000000000000000000
00000000000000000000000000000000
00000000000000000000000000000000
00000000000000000000000000000000
00000000000000000000000000000000
00000000000000000000000000000000
00000000111111000000000000000000
00000001100001110111111100000000
00000011000000011000000010000000
00001110000000110000000001000000
00001010000000000000000111111000
00001000000000000000001100000100
00001000000000000000000000000100
00001100000011110000000000001100
00000110001110011000011100011000
00000011111000001111110111110000
00000000000000000000000000000000
00000000100010001000100000000000
00000000100010001000100000000000
00000000000000000000000000000000
00000000000000000000000000000000
00000000000000000000000000000000
00000000000000000000000000000000
00000000000000000000000000000000
00000000000000000000000000000000
00000000000000000000000000000000
00000000000000000000000000000000
00000000000000000000000000000000
00000000000000000000000000000000
00000000000000000000000000000000
00000000000000000000000000000000
00000000000000000000000000000000
00000000000000000000000000000000
00000000000000000000000000000000
00000000000000000000000000000000
00000000000000000000000000000000
00000000000000000000000000000000
00000000000000000000000000000000
00000000111111000000000000000000
00000001100001110111111100000000
00000011000000011000000010000000
00001110000000110000000001000000
00001010000000000000000111111000
00001000000000000000001100000100
00001000000000000000000000000100
00001100000011110000000000001100
00000110001110011000011100011000
00000011111000001111110111110000
00000000000000000000000000000000
00000000001000100010000000000000
00000000001000100010000000000000
00000000000000000000000000000000
00000000100010001000100000000000
00000000100010001000100000000000
00000000000000000000000000000000
00000000000000000000000000000000
00000000000000000000000000000000
00000000000000000000000000000000
00000000000000000000000000000000
00000000000000000000000000000000
00000000000000000000000000000000
00000000000000000000000000000000
00000000000000000000000000000000
00000000000000000000000000000000
00000000000000000000000000000000
00000000000000000000000000000000
00000000000000000000000000000000
00000000000000000000000000000000
00000000000000000000000000000000
00000000000000000000000000000000
00000000111111000000000000000000
00000001100001110111111100000000
00000011000000011000000010000000
00001110000000110000000001000000
00001010000000000000000111111000
00001000000000000000001100000100
00001000000000000000000000000100
00001100000011110000000000001100
00000110001110011000011100011000
00000011111000001111110111110000
00000000000000000000000000000000
00000000010001000100010000000000
00000000010001000100010000000000
00000000000000000000000000000000
00000000001000100010000000000000
00000000001000100010000000000000
00000000000000000000000000000000
00000000100010001000100000000000
00000000100010001000100000000000
00000000000000000000000000000000
00000000000000000000000000000000
00000000000000000000000000000000
00000000000000000000000000000000
00000000000000000000000000000000
00000000000000000000000000000000
00000000000000000000000000000000
00000000000000000000000000000000
00000000000000000000000000000000
00000000000000000000000000000000
00000000000000000000000000000000
00000000000000000000000000000000
00000000000000000000000000000000
00000000111111000000000000000000
00000001100001110111111100000000
00000011000000011000000010000000
00001110000000110000000001000000
00001010000000000000000111111000
00001000000000000000001100000100
00001000000000000000000000000100
00001100000011110000000000001100
00000110001110011000011100011000
00000011111000001111110111110000
00000000000000000000000000000000
00000000000100010001000000000000
00000000000100010001000000000000
00000000000000000000000000000000
00000000010001000100010000000000
00000000010001000100010000000000
00000000000000000000000000000000
00000000001000100010000000000000
00000000001000100010000000000000
00000000000000000000000000000000
00000000100010001000100000000000
00000000100010001000100000000000
00000000000000000000000000000000
00000000000000000000000000000000
00000000000000000000000000000000
00000000000000000000000000000000
00000000000000000000000000000000
00000000000000000000000000000000
00000000000000000000000000000000
00000000000000000000000000000000
00000000000000000000000000000000
00000000000000000000000000000000
00000000111111000000000000000000
00000001100001110111111100000000
00000011000000011000000010000000
00001110000000110000000001000000
00001010000000000000000111111000
00001000000000000000001100000100
00001000000000000000000000000100
00001100000011110000000000001100
00000110001110011000011100011000
00000011111000001111110111110000
00000000000000000000000000000000
00000000100010001000100000000000
00000000100010001000100000000000
00000000000000000000000000000000
00000000000100010001000000000000
00000000000100010001000000000000
00000000000000000000000000000000
00000000010001000100010000000000
00000000010001000100010000000000
00000000000000000000000000000000
00000000001000100010000000000000
00000000001000100010000000000000
00000000000000000000000000000000
00000000100010001000100000000000
00000000100010001000100000000000
00000000000000000000000000000000
00000000000000000000000000000000
00000000000000000000000000000000
00000000000000000000000000000000
00000000000000000000000000000000
00000000000000000000000000000000
00000000000000000000000000000000
00000000111111000000000000000000
00000001100001110111111100000000
00000011000000011000000010000000
00001110000000110000000001000000
00001010000000000000000111111000
00001000000000000000001100000100
00001000000000000000000000000100
00001100000011110000000000001100
00000110001110011000011100011000
00000011111000001111110111110000
00000000000000000000000000000000
00000000001000100010000000000000
00000000001000100010000000000000
00000000000000000000000000000000
00000000100010001000100000000000
00000000100010001000100000000000
00000000000000000000000000000000
00000000000100010001000000000000
00000000000100010001000000000000
00000000000000000000000000000000
00000000010001000100010000000000
00000000010001000100010000000000
00000000000000000000000000000000
00000000001000100010000000000000
00000000001000100010000000000000
00000000000000000000000000000000
00000000100010001000100000000000
00000000100010001000100000000000
00000000000000000000000000000000
00000000000000000000000000000000
00000000000000000000000000000000
00000000000000000000000000000000
00000000111111000000000000000000
00000001100001110111111100000000
00000011000000011000000010000000
00001110000000110000000001000000
00001010000000000000000111111000
00001000000000000000001100000100
00001000000000000000000000000100
00001100000011110000000000001100
00000110001110011000011100011000
00000011111000001111110111110000
00000000000000000000000000000000
00000000010001000100000000000000
00000000010001000100000000000000
00000000000000000000000000000000
00000000001000100010000000000000
00000000001000100010000000000000
00000000000000000000000000000000
00000000100010001000100000000000
00000000100010001000100000000000
00000000000000000000000000000000
00000000000100010001000000000000
00000000000100010001000000000000
00000000000000000000000000000000
00000000010001000100010000000000
00000000010001000100010000000000
00000000000000000000000000000000
00000000001000100010000000000000
00000000001000100010000000000000
00000000000000000000000000000000
00000000100010001000100000000000
00000000100010001000100000000000
00000000000000000000000000000000
00000000111111000000000000000000
00000001100001110111111100000000
00000011000000011000000010000000
00001110000000110000000001000000
00001010000000000000000111111000
00001000000000000000001100000100
00001000000000000000000000000100
00001100000011110000000000001100
00000110001110011000011100011000
00000011111000001111110111110000
00000000000000000000000000000000
00000000000100010001000000000000
00000000000100010001000000000000
00000000000000000000000000000000
00000000010001000100000000000000
00000000010001000100000000000000
00000000000000000000000000000000
00000000001000100010000000000000
00000000001000100010000000000000
00000000000000000000000000000000
00000000100010001000100000000000
00000000100010001000100000000000
00000000000000000000000000000000
00000000000100010001000000000000
00000000000100010001000000000000
00000000000000000000000000000000
00000000010001000100010000000000
00000000010001000100010000000000
00000000000000000000000000000000
00000000001000100010000000000000
00000001101110101110110000000000
00000000011111100000000000000000
00000000110000111011111110000000
00000001100000001100000001000000
00000111000000011000000000100000
00000101000000000000000011111100
00000100000000000000000110000010
00000100000000000000000000000010
00000110000001111000000000000110
00000011000111001100001110001100
00000001111100000111111011111000
00000000000000000000000000000000
00000000000000000000000000000000
00000000100010001000100000000000
00000000100010001000100000000000
00000000000000000000000000000000
00000000000100010001000000000000
00000000000100010001000000000000
00000000000000000000000000000000
00000000010001000100000000000000
00000000010001000100000000000000
00000000000000000000000000000000
00000000001000100010000000000000
00000000001000100010000000000000
00000000000000000000000000000000
00000000100010001000100000000000
00000000100010001000100000000000
00000000000000000000000000000000
00000000000100010001000000000000
00000000000100010001000000000000
00000000000000000000000000000000
00000000010001000100010000000000
00000001111111101111110000000000
00000000011111100000000000000000
00000000110000111011111110000000
00000001100000001100000001000000
00000111000000011000000000100000
00000101000000000000000011111100
00000100000000000000000110000010
00000100000000000000000000000010
00000110000001111000000000000110
00000011000111001100001110001100
00000001111100010111111011111000
00000000000100010001000000000000
00000000000000000000000000000000
00000000010001000100000000000000
00000000010001000100000000000000
00000000000000000000000000000000
00000000100010001000100000000000
00000000100010001000100000000000
00000000000000000000000000000000
00000000000100010001000000000000
00000000000100010001000000000000
00000000000000000000000000000000
00000000010001000100000000000000
00000000010001000100000000000000
00000000000000000000000000000000
00000000001000100010000000000000
00000000001000100010000000000000
00000000000000000000000000000000
00000000100010001000100000000000
00000000100010001000100000000000
00000000000000000000000000000000
00000000000100010001000000000000
00000011111111111111111000000000
00000000011111100000000000000000
00000000110000111011111110000000
00000001100000001100000001000000
00000111000000011000000000100000
00000101000000000000000011111100
00000100000000000000000110000010
00000100000000000000000000000010
00000110000001111000000000000110
00000011000111001100001110001100
00000001111110001111111011111000
00000000100010001000100000000000
00000000000000000000000000000000
00000000000100010001000000000000
00000000000100010001000000000000
00000000000000000000000000000000
00000000010001000100000000000000
00000000010001000100000000000000
00000000000000000000000000000000
00000000100010001000100000000000
00000000100010001000100000000000
00000000000000000000000000000000
00000000000100010001000000000000
00000000000100010001000000000000
00000000000000000000000000000000
00000000010001000100000000000000
00000000010001000100000000000000
00000000000000000000000000000000
00000000001000100010000000000000
00000000001000100010000000000000
00000000000000000000000000000000
00000000100010001000100000000000
00000111111111111111111100000000
00000000011111100000000000000000
00000000110000111011111110000000
00000001100000001100000001000000
00000111000000011000000000100000
00000101000000000000000011111100
00000100000000000000000110000010
00000100000000000000000000000010
00000110000001111000000000000110
00000011000111001100001110001100
00000001111100000111111011111000
00000000000000000000000000000000
00000000000000000000000000000000
00000000100010001000100000000000
00000000100010001000100000000000
00000000000000000000000000000000
00000000000100010001000000000000
00000000000100010001000000000000
00000000000000000000000000000000
00000000010001000100000000000000
00000000010001000100000000000000
00000000000000000000000000000000
00000000100010001000100000000000
00000000100010001000100000000000
00000000000000000000000000000000
00000000000100010001000000000000
00000000000100010001000000000000
00000000000000000000000000000000
00000000010001000100000000000000
00000000010001000100000000000000
00000000000000000000000000000000
00000000001000100010000000000000
00001111111111111111111110000000
00000000011111100000000000000000
00000000110000111011111110000000
00000001100000001100000001000000
00000111000000011000000000100000
00000101000000000000000011111100
00000100000000000000000110000010
00000100000000000000000000000010
00000110000001111000000000000110
00000011000111001100001110001100
00000001111100000111111011111000
00000000000000000000000000000000
00000000000000000000000000000000
00000000000000000000000000000000
00000000000000000000000000000000
00000000000000000000000000000000
00000000100010001000100000000000
00000000100010001000100000000000
00000000000000000000000000000000
00000000000100010001000000000000
00000000000100010001000000000000
00000000000000000000000000000000
00000000010001000100000000000000
00000000010001000100000000000000
00000000000000000000000000000000
00000000100010001000100000000000
00000000100010001000100000000000
00000000000000000000000000000000
00000000000100010001000000000000
00000000000100010001000000000000
00000000000000000000000000000000
00000000010001000100000000000000
00011111111111111111111111000000
00000000011111100000000000000000
00000000110000111011111110000000
00000001100000001100000001000000
00000111000000011000000000100000
00000101000000000000000011111100
00000100000000000000000110000010
00000100000000000000000000000010
00000110000001111000000000000110
00000011000111001100001110001100
00000001111100000111111011111000
00000000000000000000000000000000
00000000000000000000000000000000
00000000000000000000000000000000
00000000000000000000000000000000
00000000000000000000000000000000
00000000000000000000000000000000
00000000000000000000000000000000
00000000000000000000000000000000
00000000100010001000100000000000
00000000100010001000100000000000
00000000000000000000000000000000
00000000000100010001000000000000
00000000000100010001000000000000
00000000000000000000000000000000
00000000010001000100000000000000
00000000010001000100000000000000
00000000000000000000000000000000
00000000100010001000100000000000
00000000100010001000100000000000
00000000000000000000000000000000
00000000000100010001000000000000
00111111111111111111111111100000
00000000011111100000000000000000
00000000110000111011111110000000
00000001100000001100000001000000
00000111000000011000000000100000
00000101000000000000000011111100
00000100000000000000000110000010
00000100000000000000000000000010
00000110000001111000000000000110
00000011000111001100001110001100
00000001111100000111111011111000
00000000000000000000000000000000
00000000000000000000000000000000
00000000000000000000000000000000
00000000000000000000000000000000
00000000000000000000000000000000
00000000000000000000000000000000
00000000000000000000000000000000
00000000000000000000000000000000
00000000000000000000000000000000
00000000000000000000000000000000
00000000000000000000000000000000
00000000100010001000100000000000
00000000100010001000100000000000
00000000000000000000000000000000
00000000000100010001000000000000
00000000000100010001000000000000
00000000000000000000000000000000
00000000010001000100000000000000
00000000010001000100000000000000
00000000000000000000000000000000
00000000000010001000100000000000
01111111111111111111111111110000
00000000011111100000000000000000
00000000110000111011111110000000
00000001100000001100000001000000
00000111000000011000000000100000
00000101000000000000000011111100
00000100000000000000000110000010
00000100000000000000000000000010
00000110000001111000000000000110
00000011000111001100001110001100
00000001111100000111111011111000
00000000000000000000000000000000
00000000000000000000000000000000
00000000000000000000000000000000
00000000000000000000000000000000
00000000000000000000000000000000
00000000000000000000000000000000
00000000000000000000000000000000
00000000000000000000000000000000
00000000000000000000000000000000
00000000000000000000000000000000
00000000000000000000000000000000
00000000000000000000000000000000
00000000000000000000000000000000
00000000000000000000000000000000
00000000100010001000100000000000
00000000100010001000100000000000
00000000000000000000000000000000
00000000000100010001000000000000
00000000000100010001000000000000
00000000000000000000000000000000
00000000010001000100000000000000
11111111111111111111111111111000
00000000011111100000000000000000
00000000110000111011111110000000
00000001100000001100000001000000
00000111000000011000000000100000
00000101000000000000000011111100
00000100000000000000000110000010
00000100000000000000000000000010
00000110000001111000000000000110
00000011000111001100001110001100
00000001111100000111111011111000
00000000000000000000000000000000
00000000000000000000000000000000
00000000000000000000000000000000
00000000000000000000000000000000
00000000000000000000000000000000
00000000000000000000000000000000
00000000000000000000000000000000
00000000000000000000000000000000
00000000000000000000000000000000
00000000000000000000000000000000
00000000000000000000000000000000
00000000000000000000000000000000
00000000000000000000000000000000
00000000000000000000000000000000
00000000000000000000000000000000
00000000000000000000000000000000
00000000000000000000000000000000
00000000100010001000100000000000
00000000100010001000100000000000
00000000000000000000000000000000
00000000000100010001000000000000
11111111111111111111111111111100
00000000000000000000000000000000
00000000011111100000000000000000
00000000110000111011111110000000
00000001100000001100000001000000
00000111000000011000000000100000
00000101000000000000000011111100
00000100000000000000000110000010
00000100000000000000000000000010
00000110000001111000000000000110
00000011000111001100001110001100
00000001111100000111111011111000
00000000000000000000000000000000
00000000000000000000000000000000
00000000000000000000000000000000
00000000000000000000000000000000
00000000000000000000000000000000
00000000000000000000000000000000
00000000000000000000000000000000
00000000000000000000000000000000
00000000000000000000000000000000
00000000000000000000000000000000
00000000000000000000000000000000
00000000000000000000000000000000
00000000000000000000000000000000
00000000000000000000000000000000
00000000000000000000000000000000
00000000000000000000000000000000
00000000000000000000000000000000
00000000000000000000000000000000
00000000000000000000000000000000
00000000100010001000100000000000
11111111111111111111111111111110
00000000000000000000000000000000
00000000011111100000000000000000
00000000110000111011111110000000
00000001100000001100000001000000
00000111000000011000000000100000
00000101000000000000000011111100
00000100000000000000000110000010
00000100000000000000000000000010
00000110000001111000000000000110
00000011000111001100001110001100
00000001111100000111111011111000
00000000000000000000000000000000
00000000000000000000000000000000
00000000000000000000000000000000
00000000000000000000000000000000
00000000000000000000000000000000
00000000000000000000000000000000
00000000000000000000000000000000
00000000000000000000000000000000
00000000000000000000000000000000
00000000000000000000000000000000
00000000000000000000000000000000
00000000000000000000000000000000
00000000000000000000000000000000
00000000000000000000000000000000
00000000000000000000000000000000
00000000000000000000000000000000
00000000000000000000000000000000
00000000000000000000000000000000
00000000000000000000000000000000
00000000000000000000000000000000
11111111111111111111111111111111
00000000000000000000000000000000
00000000011111100000000000000000
00000000110000111011111110000000
00000001100000001100000001000000
00000111000000011000000000100000
00000101000000000000000011111100
00000100000000000000000110000010
00000100000000000000000000000010
00000110000001111000000000000110
00000011000111001100001110001100
00000001111100000111111011111000
00000000000000000000000000000000
00000000000000000000000000000000
00000000000000000000000000000000
00000000000000000000000000000000
00000000000000000000000000000000
00000000000000000000000000000000
00000000000000000000000000000000
00000000000000000000000000000000
00000000000000000000000000000000
00000000000000000000000000000000
00000000000000000000000000000000
00000000000000000000000000000000
00000000000000000000000000000000
00000000000000000000000000000000
00000000000000000000000000000000
00000000000000000000000000000000
00000000000000000000000000000000
00000000000000000000000000000000
00000000000000000000000000000000
00000000000000000000000000000000
11111111111111111111111111111111
00000000000000000000000000000000
00000000011111100000000000000000
00000000110000111011111110000000
00000001100000001100000001000000
00000111000000011000000000100000
00000101000000000000000011111100
00000100000000000000000110000010
00000100000000000000000000000010
00000110000001111000000000000110
00000011000111001100001110001100
00000001111100000111111011111000
00000000000000000000000000000000
00000000000000000000000000000000
00000000000000000000000000000000
00000000000000000000000000000000
00000000000000000000000000000000
00000000000000000000000000000000
00000000000000000000000000000000
00000000000000000000000000000000
00000000000000000000000000000000
00000000000000000000000000000000
00000000000000000000000000000000
00000000000000000000000000000000
00000000000000000000000000000000
00000000000000000000000000000000
00000000000000000000000000000000
00000000000000000000000000000000
00000000000000000000000000000000
00000000000000000000000000000000
00000000000000000000000000000000
00000000000000000000000000000000
01111111111111111111111111111100
00000000000000000000000000000000
00000000011111100000000000000000
00000000110000111011111110000000
00000001100000001100000001000000
00000111000000011000000000100000
00000101000000000000000011111100
00000100000000000000000110000010
00000100000000000000000000000010
00000110000001111000000000000110
00000011000111001100001110001100
00000001111100000111111011111000
00000000000000000000000000000000
00000000000000000000000000000000
00000000000000000000000000000000
00000000000000000000000000000000
00000000000000000000000000000000
00000000000000000000000000000000
00000000000000000000000000000000
00000000000000000000000000000000
00000000000000000000000000000000
00000000000000000000000000000000
00000000000000000000000000000000
00000000000000000000000000000000
00000000000000000000000000000000
00000000000000000000000000000000
00000000000000000000000000000000
00000000000000000000000000000000
00000000000000000000000000000000
00000000000000000000000000000000
00000000000000000000000000000000
00000000000000000000000000000000
00011111111111111111111111111000
00000000000000000000000000000000
00000000011111100000000000000000
00000000110000111011111110000000
00000001100000001100000001000000
00000111000000011000000000100000
00000101000000000000000011111100
00000100000000000000000110000010
00000100000000000000000000000010
00000110000001111000000000000110
00000011000111001100001110001100
00000001111100000111111011111000
00000000000000000000000000000000
00000000000000000000000000000000
00000000000000000000000000000000
00000000000000000000000000000000
00000000000000000000000000000000
00000000000000000000000000000000
00000000000000000000000000000000
00000000000000000000000000000000
00000000000000000000000000000000
00000000000000000000000000000000
00000000000000000000000000000000
00000000000000000000000000000000
00000000000000000000000000000000
00000000000000000000000000000000
00000000000000000000000000000000
00000000000000000000000000000000
00000000000000000000000000000000
00000000000000000000000000000000
00000000000000000000000000000000
00000000000000000000000000000000
00001111111111111111111111100000
00000000000000000000000000000000
00000000011111100000000000000000
00000000110000111011111110000000
00000001100000001100000001000000
00000111000000011000000000100000
00000101000000000000000011111100
00000100000000000000000110000010
00000100000000000000000000000010
00000110000001111000000000000110
00000011000111001100001110001100
00000001111100000111111011111000
00000000000000000000000000000000
00000000000000000000000000000000
00000000000000000000000000000000
00000000000000000000000000000000
00000000000000000000000000000000
00000000000000000000000000000000
00000000000000000000000000000000
00000000000000000000000000000000
00000000000000000000000000000000
00000000000000000000000000000000
00000000000000000000000000000000
00000000000000000000000000000000
00000000000000000000000000000000
00000000000000000000000000000000
00000000000000000000000000000000
00000000000000000000000000000000
00000000000000000000000000000000
00000000000000000000000000000000
00000000000000000000000000000000
00000000000000000000000000000000
00000011111111111111111111000000
00000000000000000000000000000000
00000000011111100000000000000000
00000000110000111011111110000000
00000001100000001100000001000000
00000111000000011000000000100000
00000101000000000000000011111100
00000100000000000000000110000010
00000100000000000000000000000010
00000110000001111000000000000110
00000011000111001100001110001100
00000001111100000111111011111000
00000000000000000000000000000000
00000000000000000000000000000000
00000000000000000000000000000000
00000000000000000000000000000000
00000000000000000000000000000000
00000000000000000000000000000000
00000000000000000000000000000000
00000000000000000000000000000000
00000000000000000000000000000000
00000000000000000000000000000000
00000000000000000000000000000000
00000000000000000000000000000000
00000000000000000000000000000000
00000000000000000000000000000000
00000000000000000000000000000000
00000000000000000000000000000000
00000000000000000000000000000000
00000000000000000000000000000000
00000000000000000000000000000000
00000000000000000000000000000000
00000001111111111111111100000000
00000000000000000000000000000000
00000000011111100000000000000000
00000000110000111011111110000000
00000001100000001100000001000000
00000111000000011000000000100000
00000101000000000000000011111100
00000100000000000000000110000010
00000100000000000000000000000010
00000110000001111000000000000110
00000011000111001100001110001100
00000001111100000111111011111000
00000000000000000000000000000000
00000000000000000000000000000000
00000000000000000000000000000000
00000000000000000000000000000000
00000000000000000000000000000000
00000000000000000000000000000000
00000000000000000000000000000000
00000000000000000000000000000000
00000000000000000000000000000000
00000000000000000000000000000000
00000000000000000000000000000000
00000000000000000000000000000000
00000000000000000000000000000000
00000000000000000000000000000000
00000000000000000000000000000000
00000000000000000000000000000000
00000000000000000000000000000000
00000000000000000000000000000000
00000000000000000000000000000000
00000000000000000000000000000000
00000000011111111111111000000000
00000000000000000000000000000000
00000000011111100000000000000000
00000000110000111011111110000000
00000001100000001100000001000000
00000111000000011000000000100000
00000101000000000000000011111100
00000100000000000000000110000010
00000100000000000000000000000010
00000110000001111000000000000110
00000011000111001100001110001100
00000001111100000111111011111000
00000000000000000000000000000000
00000000000000000000000000000000
00000000000000000000000000000000
00000000000000000000000000000000
00000000000000000000000000000000
00000000000000000000000000000000
00000000000000000000000000000000
00000000000000000000000000000000
00000000000000000000000000000000
00000000000000000000000000000000
00000000000000000000000000000000
00000000000000000000000000000000
00000000000000000000000000000000
00000000000000000000000000000000
00000000000000000000000000000000
00000000000000000000000000000000
00000000000000000000000000000000
00000000000000000000000000000000
00000000000000000000000000000000
00000000000000000000000000000000
00000000001111111111100000000000
00000000000000000000000000000000
00000000011111100000000000000000
00000000110000111011111110000000
00000001100000001100000001000000
00000111000000011000000000100000
00000101000000000000000011111100
00000100000000000000000110000010
00000100000000000000000000000010
00000110000001111000000000000110
00000011000111001100001110001100
00000001111100000111111011111000
00000000000000000000000000000000
00000000000000000000000000000000
00000000000000000000000000000000
00000000000000000000000000000000
00000000000000000000000000000000
00000000000000000000000000000000
00000000000000000000000000000000
00000000000000000000000000000000
00000000000000000000000000000000
00000000000000000000000000000000
00000000000000000000000000000000
00000000000000000000000000000000
00000000000000000000000000000000
00000000000000000000000000000000
00000000000000000000000000000000
00000000000000000000000000000000
00000000000000000000000000000000
00000000000000000000000000000000
00000000000000000000000000000000
00000000000000000000000000000000
00000000000011111111000000000000
00000000000000000000000000000000
00000000011111100000000000000000
00000000110000111011111110000000
00000001100000001100000001000000
00000111000000011000000000100000
00000101000000000000000011111100
00000100000000000000000110000010
00000100000000000000000000000010
00000110000001111000000000000110
00000011000111001100001110001100
00000001111100000111111011111000
00000000000000000000000000000000
00000000000000000000000000000000
00000000000000000000000000000000
00000000000000000000000000000000
00000000000000000000000000000000
00000000000000000000000000000000
00000000000000000000000000000000
00000000000000000000000000000000
00000000000000000000000000000000
00000000000000000000000000000000
00000000000000000000000000000000
00000000000000000000000000000000
00000000000000000000000000000000
00000000000000000000000000000000
00000000000000000000000000000000
00000000000000000000000000000000
00000000000000000000000000000000
00000000000000000000000000000000
00000000000000000000000000000000
00000000000000000000000000000000
00000000000001111100000000000000
00000000000000000000000000000000
00000000011111100000000000000000
00000000110000111011111110000000
00000001100000001100000001000000
00000111000000011000000000100000
00000101000000000000000011111100
00000100000000000000000110000010
00000100000000000000000000000010
00000110000001111000000000000110
00000011000111001100001110001100
00000001111100000111111011111000
00000000000000000000000000000000
00000000000000000000000000000000
00000000000000000000000000000000
00000000000000000000000000000000
00000000000000000000000000000000
00000000000000000000000000000000
00000000000000000000000000000000
00000000000000000000000000000000
00000000000000000000000000000000
00000000000000000000000000000000
00000000000000000000000000000000
00000000000000000000000000000000
00000000000000000000000000000000
00000000000000000000000000000000
00000000000000000000000000000000
00000000000000000000000000000000
00000000000000000000000000000000
00000000000000000000000000000000
00000000000000000000000000000000
00000000000000000000000000000000
00000000000000011000000000000000
00000000000000000000000000000000
00000000011111100000000000000000
00000000110000111011111110000000
00000001100000001100000001000000
00000111000000011000000000100000
00000101000000000000000011111100
00000100000000000000000110000010
00000100000000000000000000000010
00000110000001111000000000000110
00000011000111001100001110001100
00000001111100000111111011111000
00000000000000000000000000000000
00000000000000000000000000000000
00000000000000000000000000000000
00000000000000000000000000000000
00000000000000000000000000000000
00000000000000000000000000000000
00000000000000000000000000000000
00000000000000000000000000000000
00000000000000000000000000000000
00000000000000000000000000000000
00000000000000000000000000000000
00000000000000000000000000000000
00000000000000000000000000000000
00000000000000000000000000000000
00000000000000000000000000000000
00000000000000000000000000000000
00000000000000000000000000000000
00000000000000000000000000000000
00000000000000000000000000000000
00000000000000000000000000000000
00000000000000000000000000000000
00000000000000000000000000000000
00000000011111100000000000000000
00000000110000111011111110000000
00000001100000001100000001000000
00000111000000011000000000100000
00000101000000000000000011111100
00000100000000000000000110000010
00000100000000000000000000000010
00000110000001111000000000000110
00000011000111001100001110001100
00000001111100000111111011111000
00000000000000000000000000000000
00000000000000000000000000000000
00000000000000000000000000000000
00000000000000000000000000000000
00000000000000000000000000000000
00000000000000000000000000000000
00000000000000000000000000000000
00000000000000000000000000000000
00000000000000000000000000000000
00000000000000000000000000000000
00000000000000000000000000000000
00000000000000000000000000000000
00000000000000000000000000000000
00000000000000000000000000000000
00000000000000000000000000000000
00000000000000000000000000000000
00000000000000000000000000000000
00000000000000000000000000000000
00000000000000000000000000000000
00000000000000000000000000000000
00000000000000000000000000000000
